X:1
T:Bona sera, come stai, core mio
T:579
T:Antonio Scandello  (1517-1580)
T:aus: El primo libro da la canzoni napoletane (1566)
%%score [ 1 2 3 4 ]
L:1/8
Q:1/2=72
M:2/2
K:F
V:1 treble nm="Discantus"
V:2 treble nm="Altus"
V:3 treble-8 nm="Tenor"
V:4 bass nm="Bassus"
V:1
 F6 F2 | E4 D4 | z2 F4 F2 | F4 E4 | D6 D2 | ^C4 D4 | D2 D2 C4 | C4 z2 F2- | F2 F2 E4 | D4 z2 F2- | %10
w: Bo- na|se- ra,|bo- na|se- ra,|co- me|sta- i,|co- re mi-|o? Bo-|* na se-|ra, bo-|
 F2 F2 F4 | E4 D4- | D2 D2 ^C4 | D4 D2 D2 | C4 C4 | D4 D2 D2 | D4 ^C4 | D4 F4 | _E4 E4 | D8 | %20
w: * na se-|ra, co-|* me sta-|i, co- re|mi- o?|Dal' al- tro|gior- no|non t'a-|gio ve-|du-|
 D2 G4 G2 | F4 F4 | F8 | F8 | z4 F4 | G6 G2 | E2 E2 F4 | D4 z2 F2 | F2 F2 _E2 E2 | D4 G4 | F8- | %31
w: ta. non t'a-|gio ve-|du-|ta.|I'|t'a- gio|co- gno- sciu-|ta, i'|t'a- gio co- gno-|sciu- ta|di|
 F4 F4 | D8 | D2 F2 F4 | F4 z2 E2 | E2 E2 F4 | D4 E4- | E2 E2 D2 D2 | ^C8 | D2 D4 F2 | %40
w: _ lon-|ta-|no. A- di-|o, a-|dio, si- gno-|ra, toc-|* ca- mi la|ma-|no, toc- ca-|
 F2 (F3 E/D/) E2 | F2 A2 A4 | F4 z2 E2 | E2 E2 F4 | D4 E4- | E2 E2 D2 D2 | ^C8 | D2 D4 F2 | %48
w: mi la _   ma-|no. A- di-|o, a-|dio, si- gno-|ra, toc-|* ca- mi la|ma-|no, toc- ca-|
 F4 (F4- | F2 ED) E4 | F8- | F8 |] %52
w: mi la|_ _ _ ma-|no,||
V:2
 C6 C2 | C4 A,4 | z2 D4 D2 | C4 C4 | A,6 A,2 | A,4 A,4 | B,2 B,2 G,4 | A,4 z2 C2- | C2 C2 C4 | %9
w: Bo- na|se- ra,|bo- na|se- ra,|co- me|sta- i,|co- re mi-|o? Bo-|* na se-|
 A,4 z2 D2- | D2 D2 C4 | C4 A,4- | A,2 A,2 A,4 | A,4 B,2 B,2 | G,4 A,4 | B,4 B,2 B,2 | B,4 A,4 | %17
w: ra, bo-|* na se-|ra, co-|* me sta-|i, co- re|mi- o?|Dal' al- tro|gior- no|
 A,4 D4 | B,4 C4 | A,8 | B,2 D4 D2 | D4 D4 | C8 | D8 | z4 D4 | D6 D2 | C2 C2 C4 | B,4 z2 D2 | %28
w: non t'a-|gio ve-|du-|ta. non t'a-|gio ve-|du-|ta.|I'|t'a- gio|co- gno- sciu-|ta, i'|
 D2 D2 C2 C2 | A,4 D4 | D8- | D4 C4 | B,8 | A,2 D2 D4 | C4 z2 C2 | C2 C2 C4 | B,4 z2 C2- | %37
w: t'a- gio co- gno-|sciu- ta|di|_ lon-|ta-|no. A- di-|o, a-|dio, si- gno-|ra, toc-|
 C2 C2 A,2 A,2 | A,8 | A,2 A,4 D2 | C2 C2 C4 | C2 C2 C4 | C4 z2 C2 | C2 C2 C4 | B,4 z2 C2- | %45
w: * ca- mi la|ma-|no, toc- ca-|mi la ma-|no. A- di-|o, a-|dio, si- gno-|ra, toc-|
 C2 C2 A,2 A,2 | A,8 | A,2 A,4 D2 | C4 C4 | C8 | C8- | C8 |] %52
w: * ca- mi la|ma-|no, toc- ca-|mi la|ma-|no.||
V:3
 A6 A2 | G4 ^F4 | z2 B4 B2 | A4 G4 | F6 F2 | E4 F4 | D2 F4 E2 | F4 z2 A2- | A2 A2 G4 | F4 z2 B2- | %10
w: Bo- na|se- ra,|bo- na|se- ra,|co- me|sta- i,|co- re mi-|o? Bo-|* na se-|ra, bo-|
 B2 B2 A4 | G4 F4- | F2 F2 E4 | F4 D2 F2- | F2 E2 F4 | F4 F2 F2 | G4 E4 | ^F6 =F2 | G4 G4- | %19
w: * na se-|ra, co-|* me sta-|i, co- re|* mi- o?|Dal' al- tro|gior- no|non t'a-|gio ve\-|
 G4 ^F4 | G2 B4 B2 | A4 B4- | B4 A4 | B8 | z4 A4 | B6 B2 | G2 G2 A4 | F4 z2 B2 | B2 B2 G2 G2 | %29
w: * du-|ta. non t'a-|gio ve-|* du-|ta.|I'|t'a- gio|co- gno- sciu-|ta, i'|t'a- gio co- gno-|
 ^F4 B4 | B8- | B4 A4 | G8 | F4 z2 A2 | A4 G4 | z2 G2 A2 A2 | F4 E2 G2- | G2 G2 F2 F2 | E8 | %39
w: sciu- ta|di|_ lon-|ta-|no. A-|di- o,|a- dio, si-|gno- ra, toc-|* ca- mi la|ma-|
 F2 F4 A2 | A2 A2 G4 | A4 z2 A2 | A4 G4 | z2 G2 A2 A2 | F4 E2 G2- | G2 G2 F2 F2 | E8 | F2 F4 A2 | %48
w: no, toc- ca-|mi la ma-|no. A-|di- o,|a- dio, si-|gno- ra, toc-|* ca- mi la|ma-|no, toc- ca-|
 A4 A4 | G8 | A8- | A8 |] %52
w: mi la|ma-|no.||
V:4
 F,6 F,2 | C,4 D,4 | z2 B,,4 B,,2 | F,4 C,4 | D,6 D,2 | A,,4 D,4 | B,,2 B,,2 C,4 | F,,4 z2 F,2- | %8
w: Bo- na|se- ra,|bo- na|se- ra,|co- me|sta- i,|co- re mi-|o? Bo-|
 F,2 F,2 C,4 | D,4 z2 B,,2- | B,,2 B,,2 F,4 | C,4 D,4- | D,2 D,2 A,,4 | D,4 B,,2 B,,2 | C,4 F,,4 | %15
w: * na se-|ra, bo-|* na se-|ra, co-|* me sta-|i, co- re|mi- o?|
 B,,4 B,,2 B,,2 | G,,4 A,,4 | D,4 D,4 | _E,4 C,4 | D,8 | G,,2 G,,4 G,,2 | D,4 B,,4 | F,8 | B,,8 | %24
w: Dal' al- tro|gior- no|non t'a-|gio ve-|du-|ta. non t'a-|gio ve-|du-|ta.|
 z4 D,4 | G,6 G,2 | C,2 C,2 F,4 | B,,4 z2 B,,2 | B,,2 B,,2 C,2 C,2 | D,4 G,,4 | B,,8- | B,,4 F,,4 | %32
w: I'|t'a- gio|co- gno- sciu-|ta, i'|t'a- gio co- gno-|sciu- ta|di|_ lon-|
 G,,8 | D,4 z2 D,2 | F,4 C,4 | z2 C,2 F,2 F,2 | B,,4 C,2 C,2- | C,2 C,2 D,2 D,2 | A,,8 | %39
w: ta-|no. A-|di- o,|a- dio, si-|gno- ra, toc-|* ca- mi la|ma-|
 D,2 D,4 D,2 | F,2 F,2 C,4 | F,,4 z2 F,2 | F,4 C,4 | z2 C,2 F,2 F,2 | B,,4 C,2 C,2- | %45
w: no, toc- ca-|mi la ma-|no. A-|di- o,|a- dio, si-|gno- ra, toc-|
 C,2 C,2 D,2 D,2 | A,,8 | D,2 D,4 D,2 | F,4 F,4 | C,8 | F,8- | F,8 |] %52
w: * ca mi la|ma-|no, toc- ca-|mi la|ma-|no.||

